X:1
T:Title
%%score { ( 1 3 ) | ( 2 4 ) }
L:1/8
Q:1/4=100
M:4/4
K:Bb
V:1 treble nm="Grand Piano"
V:3 treble 
V:2 bass 
V:4 bass 
V:1
 [DF]3 [_D=E] [_EG]2 [=DF]2 | [DB]3 [B,D] [DF]4 | [EG]3 [GB] [FA]2 [EG]2 | [DF]6 z2 | A3 G F2 E2 | %5
w: W.~H.~Doane * * *|||||
 [EG]4 [DF]2 [DB]2 | A3 B A2 z B, | F6 z2 | [DF]3 [_D=E] [_EG]2 [=DF]2 | [Fd]4 [DB]4 | %10
w: |||||
 c3 =B c2 d2 | c4 F2 E2 | [B,DF]3 [DFB] [Ge]2 [Fd]2 | d3 c B2 G2 | %14
w: ||||
[M:19/16] F/-F/-F-<FBc/-c/-c/-c/-c/-c-<c[DB] |[M:4/4] [DB]6 z2 | [Fd]3 [DB] [EB]2 [EG]2 | %17
w: |||
 z4 [DB]4 | c4 F4 | [Fd]6 z2 | [Fd]3 [FB] [GB]2 [EG]2 | [DF]4 [FB]4 | [Fc]2 [Fc]2 [=Ed]2 [Ec]2 | %23
w: ||||||
[M:9/8] .c6 z3 |[M:4/4] [B,DF]3 [DFB] [Ge]2 [Fd]2 | d3 c B2 G2 | F3 B c3 [DB] | [Fd]6 z2 | %28
w: |||||
 [B,DF]3 [DFB] [Ge]2 [Fd]2 | d3 c B2 G2 | F3 B c3 [DB] | [DB]6 z2 |] %32
w: ||||
V:2
 [B,,B,]3 [B,,B,] [B,,B,]2 [B,,B,]2 | [B,,F,]3 [B,,F,] [B,,B,]4 | [E,B,]3 [E,B,] [E,B,]2 [E,B,]2 | %3
 [B,,B,]6 z2 | [F,C]3 [F,E] [F,D]2 [F,C]2 | [B,,B,]4 [B,,B,]2 [B,,F,]2 | %6
 [C,F,C]3 [C,G,C] [C,F,C]2 .[C,=E,C]2 | [A,C]2 z2 z4 | [B,,B,]3 [B,,B,] [B,,B,]2 [B,,B,]2 | %9
 [B,,B,]4 [B,,F,]4 | [F,A,E]3 [F,A,D] [F,A,E]2 [F,B,F]2 | F4 z4 | B,,3 B,, [B,,B,]2 [B,,B,]2 | %13
 [F,B,F]3 [^F,A,E] [G,B,D]2 [E,B,E]2 | %14
[M:19/16] [F,B,D]/-[F,B,D]/-[F,B,D]-<[F,B,D][F,B,D][F,A,E]/-[F,A,E]/-[F,A,E]/-[F,A,E]/-[F,A,E]/-[F,A,E]-<[F,A,E][B,,B,] | %15
[M:4/4] [B,,F,]6 z2 | [B,,B,]3 [B,,F,] [B,,G,]2 [B,,B,]2 | [B,,B,]2 [B,,B,]2 [B,,F,]2 B,,2 | %18
 F4 z4 | [B,,B,]2 B,,2 B,,2 z2 | [B,,B,]3 [D,B,] [E,B,]2 [E,B,]2 | [B,,B,]2 B,,2 D,2 D,2 | %22
 [C,A,]2 [C,A,]2 [C,B,]2 [C,B,]2 |[M:9/8] [F,A,]2 F,- F, F,2- F, z z | %24
[M:4/4] B,,3 B,, [B,,B,]2 [B,,B,]2 | [F,B,F]3 [^F,A,E] [G,B,D]2 [E,B,E]2 | %26
 [F,B,D]3 [F,B,D] [F,A,E]3 [B,,B,] | [B,,B,]2 B,,2 B,,2 z2 | B,,3 B,, [B,,B,]2 [B,,B,]2 | %29
 [F,B,F]3 [^F,A,E] [G,B,D]2 [E,B,E]2 | [F,B,D]3 [F,B,D] [F,A,E]3 [B,,B,] | [B,,F,]6 z2 |] %32
V:3
 x8 | x8 | x8 | x8 | x8 | x8 | z4 z2 G2 | z2 D2 E2 z2 | x8 | x8 | x8 | x8 | x8 | x8 | %14
[M:19/16] x19/2 |[M:4/4] x8 | x8 | [DF]4 z2 F,2 | z2 A,2 z2 A,2 | z2 B,2 B,2 z2 | x8 | %21
 z2 B,2 B,2 B,2 | x8 |[M:9/8] E2- [A,E]- [A,E-] [A,EF]2- [A,-EF-]/[A,F]/ z z |[M:4/4] x8 | x8 | %26
 x8 | z2 B,2 B,2 z2 | x8 | x8 | x8 | x8 |] %32
V:4
 x8 | x8 | x8 | x8 | x8 | x8 | x8 | F,2- [F,-B,]2 [F,C]2 z2 | x8 | x8 | x8 | [F,A,]6 z2 | x8 | x8 | %14
[M:19/16] x19/2 |[M:4/4] x8 | x8 | x8 | [F,A,]2 F,2 [F,A,]2 F,2 | x8 | x8 | x8 | x8 |[M:9/8] x9 | %24
[M:4/4] x8 | x8 | x8 | x8 | x8 | x8 | x8 | x8 |] %32

